X:1
T:Safe Tonight
T:Mrs. C. E. Rowley
T:Safe Tonight
T:Public Domain
T:Public Domain
T:Public Domain
C:Mrs. C. E. Rowley
Z:Public Domain
%%score ( 1 2 ) ( 3 4 )
L:1/8
M:9/8
K:G
V:1 treble 
V:2 treble 
V:3 bass 
V:4 bass 
V:1
 (BA)[Gc] [GB]3 [DG]3 | ([FA][DG])[FA] [GB]3 [Gd]3 | (ed)[GB] [FA]3 D3 | (DG)[FA] [GB]6 | %4
w: 1.~Hast- * en, Shep- herd,|the * mount- ain, Haste|to * ga- ther in|See * the light-|
w: 2.~See * the storm is|ing * near- er; Rage|the * winds, the tor-|Is * not one|
w: 3.~Now * the Shep- herd|the * mount- ain, While|the * e- choing thun-|While * the storm|
 (BA)[Gc] [GB]3 [DG]3 | ([FA][DG])[FA] [GB]3 [Gd]3 | (ed)[GB] [FA]3 (GFE) | (^cB)[GA] [Fd]6 | %8
w: fier- * y ar- rows!|the * dread- ful thun-|der * shock! Then out * *|faith- * ful Shep-|
w: left * to per- ish,|pro- * tect- ed, and|a- * lone? And the * *|sad- * ly an-|
w: thick * and blind- ing,|the * mad- dened tor-|rents * pour. Hark! what * *|voice * that whis-|
 (dc)[FA] [CE]3 [CF]3 | (AG)[CE] [B,D]3 [DG]3 | [EG]2 [EG] (GF)[EG] (AG)[CE] | [B,D]6 z3 | %12
w: “Long * a- go My|I * sought, And with-|the fold’s pro- * tect- ion * All|I|
w: “Count- * ing care- ful-|I * find Nine- ty-|are safe- ly * fold- ed— * One,|is|
w: “Sin- * ner, haste to|the * light! Haste, and|the heav’n- ly * Shep- herd * Find|dering|
"^A tempo" (BA)[Gc] [GB]3 [DG]3 | ([FA][DG])[FA] [GB]3 [Gd]3 | (ed)[GB] [FA]3 [GB]3 | %15
w: safe- * ly brought.” *|||
w: left * be- hind.” Safe|night, * safe to- night,|Sweet- * ly walk- ing|
w: sheep * to- night.” *|||
 (dc)[DA] [DG]6 ||[M:2/4] [GB]>[GB]"^Refrain" [GB]2 | [Fd]>[FA] [GB]2 | [FA][FA] [GB][Fc] | %19
w: ||||
w: the * light; Sin-|will you come|to Je- sus,|And be fold- ed|
w: ||||
 [Fd]>[FA] [GB]2 | [Ec]<[Ec] [Ge]>[Ec] | [DB]>[DA] [DB]<[Gd] | [FA][FA] [GB][Fc] | %23
w: ||||
w: safe to- night?||||
w: ||||
 [GB]>[DA] [DG]2 |] %24
w: |
w: |
w: |
V:2
 G2 x7 | x9 | G2 x3 D3 x | D2 x7 | G2 x7 | x9 | G2 x3 A2 x2 | G2 x7 | F2 x7 | B,2 x7 | %10
w: to||Thy flock;|ning’s|Hear||spoke the|herd:|flock|in|
w: draw-||rents moan;|still|Un-||Shep- herd|swered,|ly,|nine|
w: climbs||ders roar;|beats|And||means that|pers,|seek|let|
 x3 E2 E2 x2 | x9 | G2 x7 | x9 | G2 x7 | F2 x7 ||[M:2/4] x4 | x4 | x4 | x4 | x4 | x4 | x4 | x4 |] %24
w: of mine||||||||||||||
w: a- las!||to-||in|ner,|||||||||
w: His wan-||||||||||||||
V:3
 (DC)[G,E] [G,D]3 [G,B,]3 | (DB,)[D,D] [G,D]3 [G,B,]3 | (CB,)[G,D] [D,D]3 [D,C]3 | %3
 [D,B,]2 [D,D] [G,D]6 | (DC)[G,E] [G,D]3 [G,B,]3 | (DB,)[D,D] [G,D]3 [G,B,]3 | %6
 (CB,)[G,D] [D,D]3 (E,F,G,) | A,2 [A,,A,] [D,A,]6 | [D,C]2 [D,C] [D,A,]3 [D,A,]3 | %9
 [G,,G,]2 [G,,G,] [G,,G,]3 [G,B,]3 | [C,C]2 [C,C] [C,C]2 [C,C] [C,C]2 [C,G,] | [G,,G,]6 z3 | %12
 (DC)[G,E] [G,D]3 [G,B,]3 | (DB,)[D,D] [G,D]3 [G,B,]3 | (CB,)[G,D] [D,D]3 [D,D]3 | %15
 [D,A,]2 [D,C] [G,B,]6 ||[M:2/4] [G,D]>[G,D] [G,D]2 | [D,D]>[D,D] [G,D]2 | [D,D][D,D] [D,D][D,A,] | %19
 [D,A,]>[D,A,] G,2 | [C,G,]<[C,G,] [C,C]>[C,G,] | [G,,G,]>[G,,G,] G,<[G,B,] | %22
 [D,D][D,D] [D,D][D,D] | [D,D]>[D,C] [G,B,]2 |] %24
V:4
 G,2 x7 | D,2 x7 | G,3 x6 | x9 | G,2 x7 | D,2 x7 | G,3 x2 A,3 x | A,2 x7 | x9 | x9 | x9 | x9 | %12
 G,2 x7 | D,2 x7 | G,2 x7 | x9 ||[M:2/4] x4 | x4 | x4 | x2 G,2 | x4 | x2 G,/ x3/2 | x4 | x4 |] %24

